X: 94
T:Rigadoon,A. JaW.094
M:6/4
L:1/4
Q:1/4=160
S:James Winder Ms, Lancashire, 1835-41
R:Rigadoon
O:England
A:Wyresdale,Lancashire
H:1/4
Z:vmp.Chris Partington, Aug 2004
K:C
A|AEA A2B|c3-c2d/e/|f>ge d>cd|e3-e2:||:e|ece e2f|!
g2d c2d|dBd d2e|f3-f2e|e>dc B2A|A3-A2:|]
